X:1
T: Miss Jessie Stewart
C:
R:Reel
Q: 232
K:Am
M:4/4
L:1/8
|:EA AB c1/4d1/4e3/2 dc|BG dG eG dG|cB AB cd ea|ge dB A2 A2|
EA AB c1/4d1/4e3/2 dc|BG dG eG dG|cB AB cd ea|ge dB A2 A2:|
|:ae ab ab c'a|ge dc Bd GB|ae ab ac' ba|ge dB A2 A2|
ae ab ab c'a|ge dc Bd GB|ce AB cd ea|ge dB A2 A2:|
